X:1
T:Title
%%score { ( 1 3 4 ) | ( 2 5 6 ) }
L:1/8
Q:1/4=84
M:4/4
K:Ab
V:1 treble nm="Grand Piano"
V:3 treble 
V:4 treble 
V:2 bass 
V:5 bass 
V:6 bass 
V:1
 [CE]2 [CA]2 [Ec]3 [EB] | [FA]2 [DF]2 [CE] [CA]3 | c2 d2 e3 [Ec] | [=DB]2 [Dc]2 B4 | %4
w: William~J.~Kirkpatrick * * *||||
 c2 d2 e3 [Ec] | [EB]2 [EA]2 [DF] [Fd]3 | c2 c2 c3 A |[M:7/8] B3 A [CA]3 |[M:1/4] A>G | %9
w: |||||
[M:4/4] B6 z2 | z/ c3/2- c4 z2 | z2 E>E z z/ c/ (3[Bd]ef | [ce]6 z2 | e6 z2 | %14
w: |||||
 [DFB]2 [DFA]2 [DEG]2 [A,DF]2 | A,2 A,>A, A,>d c>B |[M:3/4] [CA]6 |] %17
w: |||
V:2
 [A,,A,]2 [A,,E,]2 [A,,A,]3 [C,A,] | [D,D]2 [D,A,]2 [A,,A,] [A,,A,]3 | %2
 [A,E]2 [A,B,E]2 [A,CE]3 [A,,A,] | [B,,A,]2 [B,,A,]2 [E,G,E]4 | [A,E]2 [A,B,E]2 [A,CE]3 [A,,A,] | %5
 [B,,G,]2 [C,A,]2 [D,A,] [D,A,]3 | [E,A,E]2 [E,A,E]2 [E,A,E]3 [E,A,C] | %7
[M:7/8] [E,G,D]3 [E,C] [A,,E,]3 |[M:1/4] C>B, |[M:4/4] D6[K:treble] z2 | z/ E3/2- E4 A>A | %11
 G6[K:bass] E2[K:treble] | A,>A, A,>A, A,2 A>B | c6[K:bass] z2 | D,2 D,2 D,2 D,2 | %15
 E,2 E,>E, E,>[E,B,E] [E,A,E]>[E,G,D] |[M:3/4] [A,,A,]6 |] %17
V:3
 x8 | x8 | x8 | x8 | x8 | x8 | x8 |[M:7/8] x7 |[M:1/4] x2 |[M:4/4] z2 G,>G, z z/ d/ c>B | %10
 .[CA]>A, A,>A, A,<A, c>c | B6 z2 | E>E E>E E2 c>d | z2 E>E E>[Ece] [EBd]>[EAc] | x8 | [CE]6 z2 | %16
[M:3/4] x6 |] %17
V:4
 x8 | x8 | x8 | x8 | x8 | x8 | x8 |[M:7/8] x7 |[M:1/4] x2 |[M:4/4] z4 G,2 z2 | x8 | z4 E2 z2 | x8 | %13
 x8 | x8 | x8 |[M:3/4] x6 |] %17
V:5
 x8 | x8 | x8 | x8 | x8 | x8 | x8 |[M:7/8] x7 |[M:1/4] x2 |[M:4/4] z2 E,>E, z z/[K:treble] F/ E>D | %10
 A,2 z2 z4 | z2[K:bass] E,>E, z z/ A/ (3z[K:treble] cd | x8 | z2[K:bass] A,>A, A,>A, G,>A, | x8 | %15
 x8 |[M:3/4] x6 |] %17
V:6
 x8 | x8 | x8 | x8 | x8 | x8 | x8 |[M:7/8] x7 |[M:1/4] x2 |[M:4/4] z4 E,2[K:treble] [E,G,]2 | x8 | %11
 z4[K:bass] E,2 E,2[K:treble] | x8 | x2[K:bass] x6 | x8 | x8 |[M:3/4] x6 |] %17

